!!!OTL: "Der Traum" DAS MAEGDLEIN IM BRUNNGARTEN GING
!!!ARE: Europa, Mitteleuropa, Deutschland, Rhein
!!!SCT: Z1088
!!!YEM: Copyright 1995, estate of Helmut Schaffrath.
**kern
*ICvox
*Ivox
*M4/4
*k[b-e-a-d-]
*A-:
{4e-
=1
4a-
4cc
4b-
4cc
=2
4.a-
8g
4f}
{8g
8a-
=3
4.b-
8b-
8a-
8g
8f
8e-
=4
2e-}
{2a-
=5
8b-
8b-
8b-
8b-
8ee-
8dd-
8cc
8b-
=6
2b-
8cc
8r}
{8a-
8g
=7
4f
4a-
4b-
8cc
8b-
=8
2a-
4r}
==
!!!AGN: Romanze, Ballade
!!!ONB: ESAC (Essen Associative Code) Database: ZUCCAL
!!!AMT: simple quadruple
!!!AIN: vox
!!!EED: Helmut Schaffrath
!!!EEV: 1.0
*-
